!!!COM: Richard Strauss
!!!CNT: Deutscher
!!!TXO: Deutsche 
!!!OTL: Kornblumen
!!!OPS: Opus 22
!!!ONM: No. 1
!!!LYR: Felix Dahn
!!!ENC: Brian Bice
!!!YOR: Lieder, Complete Edition, vol. 1
!!!ODT: 1888/
!!NB: Vocal melody and text only encoded.
**kern	**silbe
*clefG2	*
*k[b-e-a-d-g-]	*
*M4/4	*
=1	=1
{4ff	{Korn-
8ee-	-blu-
8cc	-men
8dd-	nenn'
8dd-	ich
8ee-	die
8ff	Ge-
=2	=2
4gg-	-stal-
8b-	-ten,
8dd-	die
4cc	mil-
8b-}	-den,}
8r	.
=3	=3
8r	.
{(8a-	{mit
8cc)	|
8dd-	den
4.ee-	blau-
8cc	-en
=4	=4
8.a-	Au-
16b-	|
4a-}	-gen,}
4r	.
{4a-	{die,
=5	=5
4.dd-	an-
8dd-	-spruch-
8cc	-slos,
8cc	in
8een	stil-
8ff	-lem
=6	=6
4b-	Wal-
8b-	-ten
8b-}	den}
{4.gg-	{Thau
8ff	des
=7	=7
8ff	Frie-
8ee-	-dens,
8dd-	den
8ee-	sie
(4dd-	sau-
8cc-)	-gen
8ee-	aus
=8	=8
8ee-	ih-
8ee-	-ren
8ff	eig-
8ee-}	-nen,}
8r	.
{(8ee-	{kla-
8ff)	|
8gg-	-ren
=9	=9
(2.aa-	See-
4cc-)}	-len,}
=10	=10
{4b-	{mit-
8ff	-tei-
8ee-	-len
8gg-	al-
8dd-	-lem,
8cc	dem-
8b-	-sie
=11	=11
4.a-}	nah'n,}
{8cc	{be-
4cc	-wusst-
4b-	-los
=12	=12
*M3/4	*
4r	.
8a-	der
8a-	Ge-
8.cc	-fu2hls-
16b-	-ju-
=13	=13
4b-	-we-
8an}	-len,}
{8b-	{die
8cc	sie
8dd-	von
=14	=14
*M4/4	*
4.ff	Him-
8ee-	-mels-
4a-	-hand
(8cc	em-
8b-)	|
=15	=15
2a-}	-pfah'n.}
2r	.
=16	=16
{4dd-	{Dir
8cc	wird
8b-	so
[2a-	wohl
=17	=17
8a-]	|
8dd-	in
8ee-	ih-
8ff	-rer
(8.a-	Na2-
16b-)	|
4a-}	-he,}
=18	=18
8r	.
{8a-	{als
8aa-	gingst
8gg-	du
8ff	durch
8ee-	ein
8.dd-	Saat-
16ee-	-ge-
=19	=19
4dd-	-fil-
4cc}	-de,}
8r	.
{8cc-	{durch
8cc-	das
8cc-	der
=20	=20
4.b-	Hauch
8b-	des
4.gg-	A-
8ff	-bends
=21	=21
4ee-	we-
4dd-}	-he,}
8r	.
{8dd-	{voll
8ff	from-
8dd-	-men
=22	=22
(8.a-	Frie-
16b-)	|
4a-	-dens
8r	.
(8a-	und
8cc)	|
8b-	voll
=23	=23
(8.a-	Mil-
16b-)	|
4a-}	-de,}
8r	.
{8dd-	{voll
8dd-	from-
8dd-	-men
=24	=24
4dd-	Frie-
4e-	-dens
8r	.
(8e-	und
8g-)	|
8f	voll
=25	=25
2e-	Mil-
4d-}	-de.}
4r	.
*-	*-
